Documents/Basics/VertexShaderDataFlow.svg

<?xml version="1.0" encoding="UTF-8" standalone="no"?>
<svg
   xmlns:dc="http://purl.org/dc/elements/1.1/"
   xmlns:cc="http://creativecommons.org/ns#"
   xmlns:rdf="http://www.w3.org/1999/02/22-rdf-syntax-ns#"
   xmlns:svg="http://www.w3.org/2000/svg"
   xmlns="http://www.w3.org/2000/svg"
   xmlns:xlink="http://www.w3.org/1999/xlink"
   xmlns:sodipodi="http://sodipodi.sourceforge.net/DTD/sodipodi-0.dtd"
   xmlns:inkscape="http://www.inkscape.org/namespaces/inkscape"
   version="1.1"
   stroke-miterlimit="10"
   id="svg2"
   inkscape:version="0.48.0 r9654"
   width="700"
   height="375"
   sodipodi:docname="VertexShaderDataFlow.svg"
   style="fill:none;stroke:none">
  <metadata
     id="metadata36">
    <rdf:RDF>
      <cc:Work
         rdf:about="">
        <dc:format>image/svg+xml</dc:format>
        <dc:type
           rdf:resource="http://purl.org/dc/dcmitype/StillImage" />
      </cc:Work>
    </rdf:RDF>
  </metadata>
  <defs
     id="defs34" />
  <sodipodi:namedview
     pagecolor="#ffffff"
     bordercolor="#666666"
     borderopacity="1"
     objecttolerance="10"
     gridtolerance="10"
     guidetolerance="10"
     inkscape:pageopacity="0"
     inkscape:pageshadow="2"
     inkscape:window-width="1768"
     inkscape:window-height="1050"
     id="namedview32"
     showgrid="false"
     inkscape:zoom="1"
     inkscape:cx="238.00943"
     inkscape:cy="235.49248"
     inkscape:window-x="148"
     inkscape:window-y="-4"
     inkscape:window-maximized="1"
     inkscape:current-layer="layer2"
     showguides="true"
     inkscape:guide-bbox="true">
    <sodipodi:guide
       orientation="0,1"
       position="59,336"
       id="guide3773" />
    <sodipodi:guide
       orientation="1,0"
       position="23,290"
       id="guide3825" />
    <sodipodi:guide
       orientation="1,0"
       position="247,493"
       id="guide3865" />
    <sodipodi:guide
       orientation="1,0"
       position="538,268"
       id="guide4002" />
  </sodipodi:namedview>
  <g
     inkscape:groupmode="layer"
     id="layer1"
     inkscape:label="Background">
    <path
       d="m 247,60.87021 0,0 c 0,-7.98065 6.4696,-14.45026 14.45026,-14.45026 l 170.56406,0 c 3.8324,0 7.50787,1.52243 10.2178,4.23238 2.71,2.70996 4.23245,6.38544 4.23245,10.21788 l 0,52.98923 c 0,7.98068 -6.46961,14.45028 -14.45025,14.45028 l -170.56406,0 C 253.4696,128.30972 247,121.84012 247,113.85944 z"
       id="path4"
       inkscape:connector-curvature="0"
       style="fill:#efecfd;fill-opacity:1;stroke:#000000;stroke-width:1;stroke-linecap:butt;stroke-linejoin:round;stroke-miterlimit:10;stroke-dasharray:none" />
    <path
       d="m 247,160.50538 0,0 c 0,-7.98066 6.46961,-14.45027 14.45027,-14.45027 l 170.56405,0 c 3.83241,0 7.50787,1.52243 10.21781,4.23238 2.70999,2.70996 4.23245,6.38544 4.23245,10.21789 l 0,52.98922 c 0,7.98069 -6.46961,14.45028 -14.45026,14.45028 l -170.56405,0 C 253.46961,227.94488 247,221.47528 247,213.4946 z"
       id="path4-4"
       inkscape:connector-curvature="0"
       style="fill:#efecfd;fill-opacity:1;stroke:#000000;stroke-width:1;stroke-linecap:butt;stroke-linejoin:round;stroke-miterlimit:10;stroke-dasharray:none" />
    <path
       d="m 247,256.50538 0,0 c 0,-7.98066 6.46961,-14.45027 14.45027,-14.45027 l 170.56405,0 c 3.83241,0 7.50787,1.52243 10.21781,4.23238 2.70999,2.70996 4.23245,6.38544 4.23245,10.21789 l 0,52.98922 c 0,7.98068 -6.46961,14.45028 -14.45026,14.45028 l -170.56406,0 C 253.46961,323.94488 247,317.47528 247,309.4946 z"
       id="path4-2"
       inkscape:connector-curvature="0"
       style="fill:#efecfd;fill-opacity:1;stroke:#000000;stroke-width:1;stroke-linecap:butt;stroke-linejoin:round;stroke-miterlimit:10;stroke-dasharray:none" />
    <path
       d="m 23,49.204746 83.40157,0 0,35.795254 L 23,85 z"
       id="path16"
       inkscape:connector-curvature="0"
       style="fill:#d2fff1;fill-opacity:1;stroke:#000000;stroke-width:0.73229474;stroke-linecap:butt;stroke-linejoin:round;stroke-miterlimit:10;stroke-dasharray:none" />
    <path
       d="m 23,85 83.40158,0 0,35.79526 -83.40158,0 z"
       id="path16-0"
       inkscape:connector-curvature="0"
       style="fill:#d2fff1;fill-opacity:1;stroke:#000000;stroke-width:0.73229474;stroke-linecap:butt;stroke-linejoin:round;stroke-miterlimit:10;stroke-dasharray:none" />
    <path
       d="m 23,121.10237 83.40158,0 0,35.79526 -83.40158,0 z"
       id="path16-0-1"
       inkscape:connector-curvature="0"
       style="fill:#d2fff1;fill-opacity:1;stroke:#000000;stroke-width:0.73229474;stroke-linecap:butt;stroke-linejoin:round;stroke-miterlimit:10;stroke-dasharray:none" />
  </g>
  <g
     inkscape:groupmode="layer"
     id="layer2"
     inkscape:label="Foreground">
    <text
       xml:space="preserve"
       style="font-size:20px;font-style:normal;font-variant:normal;font-weight:normal;font-stretch:normal;text-align:start;line-height:125%;writing-mode:lr-tb;text-anchor:start;fill:#000000;fill-opacity:1;stroke:none;font-family:Serif;-inkscape-font-specification:Serif"
       x="13"
       y="39"
       id="text4042"
       sodipodi:linespacing="125%"><tspan
         sodipodi:role="line"
         x="13"
         y="39"
         id="tspan4044"><tspan
           x="13"
           y="39"
           id="tspan4046">Buffer Object</tspan></tspan></text>
    <text
       xml:space="preserve"
       style="font-size:20px;font-style:normal;font-variant:normal;font-weight:normal;font-stretch:normal;text-align:start;line-height:125%;writing-mode:lr-tb;text-anchor:start;fill:#000000;fill-opacity:1;stroke:none;font-family:Serif;-inkscape-font-specification:Serif"
       x="284"
       y="39.000004"
       id="text4066"
       sodipodi:linespacing="125%"><tspan
         sodipodi:role="line"
         x="284"
         y="39.000004"
         id="tspan4068"><tspan
           x="284"
           y="39.000004"
           id="tspan4070">Vertex Shaders</tspan></tspan></text>
    <text
       xml:space="preserve"
       style="font-size:20px;font-style:normal;font-variant:normal;font-weight:normal;font-stretch:normal;text-align:start;line-height:125%;writing-mode:lr-tb;text-anchor:start;fill:#000000;fill-opacity:1;stroke:none;font-family:Serif;-inkscape-font-specification:Serif"
       x="35.826771"
       y="73.420509"
       id="text4036"
       sodipodi:linespacing="125%"><tspan
         sodipodi:role="line"
         x="35.826771"
         y="73.420509"
         id="tspan4038"><tspan
           x="35.826771"
           y="73.420509"
           id="tspan4040">Index 0</tspan></tspan></text>
    <text
       xml:space="preserve"
       style="font-size:20px;font-style:normal;font-variant:normal;font-weight:normal;font-stretch:normal;text-align:start;line-height:125%;writing-mode:lr-tb;text-anchor:start;fill:#000000;fill-opacity:1;stroke:none;font-family:Serif;-inkscape-font-specification:Serif"
       x="35.826771"
       y="109.21577"
       id="text4030"
       sodipodi:linespacing="125%"><tspan
         sodipodi:role="line"
         x="35.826771"
         y="109.21577"
         id="tspan4032"><tspan
           x="35.826771"
           y="109.21577"
           id="tspan4034">Index 1</tspan></tspan></text>
    <text
       xml:space="preserve"
       style="font-size:20px;font-style:normal;font-variant:normal;font-weight:normal;font-stretch:normal;text-align:start;line-height:125%;writing-mode:lr-tb;text-anchor:start;fill:#000000;fill-opacity:1;stroke:none;font-family:Serif;-inkscape-font-specification:Serif"
       x="35.826771"
       y="145.31813"
       id="text4024"
       sodipodi:linespacing="125%"><tspan
         sodipodi:role="line"
         x="35.826771"
         y="145.31813"
         id="tspan4026"><tspan
           x="35.826771"
           y="145.31813"
           id="tspan4028">Index 2</tspan></tspan></text>
    <text
       xml:space="preserve"
       style="font-size:20px;font-style:normal;font-variant:normal;font-weight:normal;font-stretch:normal;text-align:start;line-height:125%;writing-mode:lr-tb;text-anchor:start;fill:#00745e;fill-opacity:1;stroke:none;font-family:Serif;-inkscape-font-specification:Serif"
       x="260.72702"
       y="70.344383"
       id="text4060"
       sodipodi:linespacing="125%"><tspan
         sodipodi:role="line"
         x="260.72702"
         y="70.344383"
         id="tspan4062"><tspan
           x="260.72702"
           y="70.344383"
           id="tspan4064"
           style="fill:#00745e;fill-opacity:1">in vec4 position</tspan></tspan></text>
    <text
       xml:space="preserve"
       style="font-size:20px;font-style:normal;font-variant:normal;font-weight:normal;font-stretch:normal;text-align:start;line-height:125%;writing-mode:lr-tb;text-anchor:start;fill:#00745e;fill-opacity:1;stroke:none;font-family:Serif;-inkscape-font-specification:Serif"
       x="260.72702"
       y="169.97955"
       id="text4054"
       sodipodi:linespacing="125%"><tspan
         sodipodi:role="line"
         x="260.72702"
         y="169.97955"
         id="tspan4056"><tspan
           x="260.72702"
           y="169.97955"
           id="tspan4058"
           style="fill:#00745e;fill-opacity:1">in vec4 position</tspan></tspan></text>
    <text
       xml:space="preserve"
       style="font-size:20px;font-style:normal;font-variant:normal;font-weight:normal;font-stretch:normal;text-align:start;line-height:125%;writing-mode:lr-tb;text-anchor:start;fill:#00745e;fill-opacity:1;stroke:none;font-family:Serif;-inkscape-font-specification:Serif"
       x="260.72702"
       y="265.97955"
       id="text4048"
       sodipodi:linespacing="125%"><tspan
         sodipodi:role="line"
         x="260.72702"
         y="265.97955"
         id="tspan4050"><tspan
           x="260.72702"
           y="265.97955"
           id="tspan4052"
           style="fill:#00745e;fill-opacity:1">in vec4 position</tspan></tspan></text>
    <path
       style="fill:none;stroke:#00745e;stroke-width:1px;stroke-linecap:butt;stroke-linejoin:miter;stroke-opacity:1"
       d="m 106,68 c 20.53861,0 28.07937,-13.597416 41.30057,-13.597416 18.59259,0.516592 46.78578,7.078799 65.43463,7.362217 C 231.83848,62.055125 239.29894,65 258,65"
       id="path3912"
       inkscape:connector-curvature="0"
       sodipodi:nodetypes="ccsc" />
    <path
       style="fill:none;stroke:#00745e;stroke-width:1px;stroke-linecap:butt;stroke-linejoin:miter;stroke-opacity:1"
       d="m 106.5,102.5 c 29.39782,0 58.60756,14.24592 77.6668,30.75 34.14983,29.57157 30.02055,31.10355 73.8332,30.75"
       id="path3914"
       inkscape:connector-curvature="0"
       sodipodi:nodetypes="csc" />
    <path
       style="fill:none;stroke:#00745e;stroke-width:1px;stroke-linecap:butt;stroke-linejoin:miter;stroke-opacity:1"
       d="m 106.06602,138.47278 c 38.18376,-1.06066 49.49747,12.72792 64.34672,51.97235 14.84924,39.24442 40.9774,70.71068 85.91347,70.71068"
       id="path3916"
       inkscape:connector-curvature="0"
       sodipodi:nodetypes="csc" />
    <path
       style="fill:none;stroke:#000000;stroke-width:1px;stroke-linecap:butt;stroke-linejoin:miter;stroke-opacity:1"
       d="m 538,107 c -92.52273,0 -92.16917,0 -92.16917,0"
       id="path4006"
       inkscape:connector-curvature="0" />
    <path
       style="fill:none;stroke:#000000;stroke-width:1px;stroke-linecap:butt;stroke-linejoin:miter;stroke-opacity:1"
       d="m 538,209.18346 c -92.52273,0 -92.16917,0 -92.16917,0"
       id="path4008"
       inkscape:connector-curvature="0" />
    <path
       style="fill:none;stroke:#000000;stroke-width:1px;stroke-linecap:butt;stroke-linejoin:miter;stroke-opacity:1"
       d="m 538,302.168 -92.16917,0"
       id="path4010"
       inkscape:connector-curvature="0" />
    <text
       xml:space="preserve"
       style="font-size:20px;font-style:normal;font-variant:normal;font-weight:normal;font-stretch:normal;text-align:start;line-height:125%;writing-mode:lr-tb;text-anchor:start;fill:#000000;fill-opacity:1;stroke:none;font-family:Serif;-inkscape-font-specification:Serif"
       x="541"
       y="215"
       id="text4072"
       sodipodi:linespacing="125%"><tspan
         sodipodi:role="line"
         x="541"
         y="215"
         id="tspan4074"><tspan
           x="541"
           y="215"
           id="tspan4076">gl_Position</tspan></tspan></text>
    <use
       x="0"
       y="0"
       xlink:href="#text4072"
       id="use4086"
       transform="translate(0,92)"
       width="700"
       height="375" />
    <use
       x="0"
       y="0"
       xlink:href="#text4072"
       id="use4088"
       transform="translate(0,-104)"
       width="700"
       height="375" />
  </g>
</svg>

<?xml version="1.0" encoding="UTF-8" standalone="no"?>
<!DOCTYPE svg PUBLIC "-//W3C//DTD SVG 1.1//EN" "http://www.w3.org/Graphics/SVG/1.1/DTD/svg11.dtd">
<svg width="100%" height="100%" viewBox="0 0 700 375" version="1.1" xmlns="http://www.w3.org/2000/svg" xmlns:xlink="http://www.w3.org/1999/xlink" xml:space="preserve" xmlns:serif="http://www.serif.com/" style="fill-rule:evenodd;clip-rule:evenodd;stroke-linejoin:round;stroke-miterlimit:10;">
    <g id="Background">
        <path id="path4" d="M247,60.87C247,52.89 253.47,46.42 261.45,46.42L432.014,46.42C435.847,46.42 439.522,47.942 442.232,50.652C444.942,53.362 446.465,57.038 446.465,60.87L446.465,113.859C446.465,121.84 439.995,128.31 432.014,128.31L261.45,128.31C253.47,128.31 247,121.84 247,113.859L247,60.87Z" style="fill:rgb(239,236,253);fill-rule:nonzero;stroke:black;stroke-width:1px;"/>
        <path id="path4-4" d="M247,160.505C247,152.525 253.47,146.055 261.45,146.055L432.014,146.055C435.847,146.055 439.522,147.578 442.232,150.287C444.942,152.997 446.465,156.673 446.465,160.505L446.465,213.495C446.465,221.475 439.995,227.945 432.014,227.945L261.45,227.945C253.47,227.945 247,221.475 247,213.495L247,160.505Z" style="fill:rgb(239,236,253);fill-rule:nonzero;stroke:black;stroke-width:1px;"/>
        <path id="path4-2" d="M247,256.505C247,248.525 253.47,242.055 261.45,242.055L432.014,242.055C435.847,242.055 439.522,243.578 442.232,246.287C444.942,248.997 446.465,252.673 446.465,256.505L446.465,309.495C446.465,317.475 439.995,323.945 432.014,323.945L261.45,323.945C253.47,323.945 247,317.475 247,309.495L247,256.505Z" style="fill:rgb(239,236,253);fill-rule:nonzero;stroke:black;stroke-width:1px;"/>
        <rect id="path16" x="23" y="49.205" width="83.402" height="35.795" style="fill:rgb(210,255,241);fill-rule:nonzero;stroke:black;stroke-width:0.73px;"/>
        <rect id="path16-0" x="23" y="85" width="83.402" height="35.795" style="fill:rgb(210,255,241);fill-rule:nonzero;stroke:black;stroke-width:0.73px;"/>
        <rect id="path16-0-1" x="23" y="121.102" width="83.402" height="35.795" style="fill:rgb(210,255,241);fill-rule:nonzero;stroke:black;stroke-width:0.73px;"/>
    </g>
    <g id="Foreground">
        <g transform="matrix(1,0,0,1,13,39)">
            <g id="text4042">
                <text x="0px" y="0px" style="font-family:'IBMPlexSans-Regular', 'IBM Plex Sans', sans-serif;font-size:20px;">Buffer Object</text>
            </g>
        </g>
        <g transform="matrix(1,0,0,1,284,39)">
            <text x="0px" y="0px" style="font-family:'IBMPlexSans-Regular', 'IBM Plex Sans', sans-serif;font-size:20px;">V<tspan x="11.58px " y="0px ">e</tspan>rte<tspan x="47.66px " y="0px ">x</tspan> Shaders</text>
        </g>
        <g transform="matrix(1,0,0,1,23.4868,73.4205)">
            <text x="7.119px" y="0px" style="font-family:'IBMPlexSans-Regular', 'IBM Plex Sans', sans-serif;font-size:20px;">Inde<tspan x="48.819px " y="0px ">x</tspan> 0</text>
        </g>
        <g transform="matrix(1,0,0,1,23.0768,109.216)">
            <text x="7.25px" y="0px" style="font-family:'IBMPlexSans-Regular', 'IBM Plex Sans', sans-serif;font-size:20px;">Inde<tspan x="48.95px " y="0px ">x</tspan> 1</text>
        </g>
        <g transform="matrix(1,0,0,1,23.0768,145.318)">
            <text x="7.25px" y="0px" style="font-family:'IBMPlexSans-Regular', 'IBM Plex Sans', sans-serif;font-size:20px;">Inde<tspan x="48.95px " y="0px ">x</tspan> 2</text>
        </g>
        <g transform="matrix(1,0,0,1,260.727,70.3444)">
            <text x="0px" y="0px" style="font-family:'IBMPlexSans-Regular', 'IBM Plex Sans', sans-serif;font-size:20px;fill:rgb(0,116,94);">in v<tspan x="30.76px " y="0px ">e</tspan>c4 position</text>
        </g>
        <g transform="matrix(1,0,0,1,260.727,169.98)">
            <text x="0px" y="0px" style="font-family:'IBMPlexSans-Regular', 'IBM Plex Sans', sans-serif;font-size:20px;fill:rgb(0,116,94);">in v<tspan x="30.76px " y="0px ">e</tspan>c4 position</text>
        </g>
        <g transform="matrix(1,0,0,1,260.727,265.98)">
            <text x="0px" y="0px" style="font-family:'IBMPlexSans-Regular', 'IBM Plex Sans', sans-serif;font-size:20px;fill:rgb(0,116,94);">in v<tspan x="30.76px " y="0px ">e</tspan>c4 position</text>
        </g>
        <path id="path3912" d="M106,68C126.539,68 134.079,54.403 147.301,54.403C165.893,54.919 194.086,61.481 212.735,61.765C231.838,62.055 239.299,65 258,65" style="fill:none;fill-rule:nonzero;stroke:rgb(0,116,94);stroke-width:1px;stroke-linejoin:miter;"/>
        <path id="path3914" d="M106.5,102.5C135.898,102.5 165.108,116.746 184.167,133.25C218.317,162.822 214.187,164.354 258,164" style="fill:none;fill-rule:nonzero;stroke:rgb(0,116,94);stroke-width:1px;stroke-linejoin:miter;"/>
        <path id="path3916" d="M106.066,138.473C144.25,137.412 155.563,151.201 170.413,190.445C185.262,229.69 211.39,261.156 256.326,261.156" style="fill:none;fill-rule:nonzero;stroke:rgb(0,116,94);stroke-width:1px;stroke-linejoin:miter;"/>
        <path id="path4006" d="M538,107C445.477,107 445.831,107 445.831,107" style="fill:none;fill-rule:nonzero;stroke:black;stroke-width:1px;stroke-linejoin:miter;"/>
        <path id="path4008" d="M538,209.183C445.477,209.183 445.831,209.183 445.831,209.183" style="fill:none;fill-rule:nonzero;stroke:black;stroke-width:1px;stroke-linejoin:miter;"/>
        <path id="path4010" d="M538,302.168L445.831,302.168" style="fill:none;fill-rule:nonzero;stroke:black;stroke-width:1px;stroke-linejoin:miter;"/>
        <g transform="matrix(1,0,0,1,541,215)">
            <text x="0px" y="0px" style="font-family:'IBMPlexSans-Regular', 'IBM Plex Sans', sans-serif;font-size:20px;">gl<tspan x="16.3px 27.6px 39.32px " y="0px 0px 0px ">_Po</tspan>sition</text>
        </g>
        <g transform="matrix(1,0,0,1,541,307)">
            <text x="0px" y="0px" style="font-family:'IBMPlexSans-Regular', 'IBM Plex Sans', sans-serif;font-size:20px;">gl<tspan x="16.3px 27.6px 39.32px " y="0px 0px 0px ">_Po</tspan>sition</text>
        </g>
        <g transform="matrix(1,0,0,1,541,111)">
            <text x="0px" y="0px" style="font-family:'IBMPlexSans-Regular', 'IBM Plex Sans', sans-serif;font-size:20px;">gl<tspan x="16.3px 27.6px 39.32px " y="0px 0px 0px ">_Po</tspan>sition</text>
        </g>
    </g>
</svg>
